X:1
T:Hen's March, The
L:1/8
M:2/4
S:Bruce & Stokoe -- Northumbrian Minstrelsy  (1882)
Z:AK/Fiddler's Companion
K:G
G | \
c>de>f | g>fe>d | c>d c/d/e | G2G2 | c>de>f | g>fe>f | g>fe>f | g2 g>g | 
g>fe>g | f>ed>f | e>d c/d/e | G2G2 | c>Bc>d | efgf | edcB | c3 :| 
|: G | \
Gccc | cccc | cccc | cceg | Gccc | cccc | cccc | cceg | cceg | cceg | 
c/d/c/d/ c/d/c/d | c/d/c/d/ eg | c/d/c/d/ c/d/c/d/ c/d/c/d eg | c/d/c/d/ eg c/d/c/d/ eg | 
g>fe>g | f>ed>f | e>d c/d/e | G2G2 | c>Bcd | efgf | edcB | c3 :|
